build/img/icon-timer.svg

<svg width="30" height="36" viewBox="0 0 30 36"  xmlns="http://www.w3.org/2000/svg">
<path fill="currentcolor" d="M3.2304 11.8168L1.72428 10.3255C0.906044 9.51564 0.906044 8.19743 1.72428 7.38707C2.54252 6.57699 3.87401 6.57699 4.69225 7.38707L6.3003 8.9791C7.97778 7.82242 9.89001 7.02181 11.8935 6.6376V4.57153H10.4943C10.1078 4.57153 9.79463 4.26146 9.79463 3.87888V2.07797C9.79463 0.93211 10.7361 0 11.8935 0H17.4906C18.648 0 19.5895 0.93211 19.5895 2.07797V3.87888C19.5895 4.26146 19.2763 4.57153 18.8898 4.57153H17.4906V6.6376C19.4938 7.02154 21.4063 7.82242 23.0838 8.9791L24.6918 7.38707C25.5098 6.57699 26.8413 6.57699 27.6598 7.38707C28.478 8.19716 28.478 9.51537 27.6598 10.3255L26.1537 11.8168C28.2414 14.3913 29.3843 17.5981 29.3843 20.9182C29.3843 28.9387 22.7933 35.464 14.692 35.464C6.59081 35.464 -0.00019455 28.9387 -0.00019455 20.9182C-0.00019455 17.5981 1.14272 14.3913 3.2304 11.8168ZM3.70293 8.36653C3.42991 8.09651 2.98635 8.09678 2.7136 8.36653C2.44113 8.63656 2.44113 9.07597 2.7136 9.34599L4.15932 10.777C4.48509 10.4459 4.82671 10.1301 5.18199 9.83112L3.70293 8.36653ZM18.1902 2.07797C18.1902 1.69593 17.8765 1.38531 17.4906 1.38531H11.8935C11.5076 1.38531 11.1939 1.69593 11.1939 2.07797V3.18622H18.1902V2.07797ZM13.2928 4.57153V6.43792C14.2201 6.35188 15.1637 6.35188 16.0913 6.43792V4.57153H13.2928ZM26.6705 8.36653C26.3977 8.09678 25.9539 8.09651 25.6812 8.36653L24.2021 9.83112C24.5574 10.1301 24.899 10.4459 25.2248 10.777L26.6705 9.34599C26.943 9.07597 26.943 8.63656 26.6705 8.36653ZM14.692 34.0787C22.0218 34.0787 27.985 28.1749 27.985 20.9182C27.985 17.7171 26.8112 14.6329 24.6801 12.2332C24.0931 11.5722 23.438 10.9683 22.7331 10.4375C20.9669 9.10681 18.8762 8.23098 16.6871 7.9044C16.032 7.80727 15.3608 7.75775 14.692 7.75775C14.0233 7.75775 13.3521 7.80727 12.6973 7.9044C10.5079 8.23098 8.41723 9.10681 6.65067 10.4375C5.94612 10.9683 5.29103 11.5722 4.704 12.2332C2.57286 14.6329 1.39907 17.7171 1.39907 20.9182C1.39907 28.1749 7.36232 34.0787 14.692 34.0787Z" fill="#00B2FF"/>
<path fill="currentcolor" d="M14.6916 22.9961C13.5342 22.9961 12.5927 22.064 12.5927 20.9182C12.5927 20.0153 13.1776 19.2452 13.992 18.9593V13.9916C13.992 13.609 14.3052 13.299 14.6916 13.299C15.0781 13.299 15.3913 13.609 15.3913 13.9916V18.9593C16.2057 19.2452 16.7905 20.0153 16.7905 20.9182C16.7905 22.064 15.849 22.9961 14.6916 22.9961ZM14.6916 20.2255C14.3057 20.2255 13.992 20.5361 13.992 20.9182C13.992 21.3002 14.3057 21.6108 14.6916 21.6108C15.0775 21.6108 15.3913 21.3002 15.3913 20.9182C15.3913 20.5361 15.0775 20.2255 14.6916 20.2255Z" fill="#00B2FF"/>
<path fill="currentcolor" d="M7.23909 13.6106C7.25002 13.5979 7.26096 13.5852 7.27325 13.5733C7.28637 13.56 7.30031 13.5481 7.31425 13.5362C8.54735 12.3284 10.0707 11.4347 11.7238 10.9515C12.0947 10.8432 12.4836 11.0527 12.5929 11.4196C12.7022 11.7865 12.4907 12.1717 12.1201 12.28C10.8952 12.6382 9.75257 13.2573 8.77855 14.0839L9.25053 14.5511C9.52355 14.8217 9.52355 15.2603 9.25053 15.5309C9.11388 15.6661 8.93488 15.7338 8.7556 15.7338C8.57659 15.7338 8.39758 15.6661 8.26094 15.5309L7.78786 15.0625C6.52197 16.5198 5.77014 18.3137 5.62366 20.2255H6.2965C6.68294 20.2255 6.99614 20.5358 6.99614 20.9182C6.99614 21.3007 6.68294 21.6108 6.2965 21.6108H5.62366C5.77014 23.5229 6.52197 25.3165 7.78786 26.7738L8.26094 26.3055C8.53423 26.0352 8.97724 26.0352 9.25053 26.3055C9.52382 26.576 9.52382 27.0146 9.25053 27.2852L8.77746 27.7535C10.2494 29.0068 12.0613 29.7512 13.9924 29.8964V29.23C13.9924 28.8475 14.3056 28.5374 14.6921 28.5374C15.0785 28.5374 15.3917 28.8475 15.3917 29.23V29.8962C17.3228 29.7512 19.1347 29.0068 20.6067 27.7535L20.1336 27.2852C19.8603 27.0146 19.8603 26.576 20.1336 26.3055C20.4069 26.0352 20.8499 26.0352 21.1232 26.3055L21.5963 26.7738C22.8622 25.3165 23.614 23.5227 23.7605 21.6108H23.0876C22.7012 21.6108 22.388 21.3007 22.388 20.9182C22.388 20.5356 22.7012 20.2255 23.0876 20.2255H23.7605C23.614 18.3137 22.8622 16.5198 21.5963 15.0625L21.1232 15.5309C20.9866 15.6661 20.8075 15.7338 20.6285 15.7338C20.4493 15.7338 20.2703 15.6661 20.1336 15.5309C19.8606 15.2603 19.8606 14.8217 20.1336 14.5511L20.6056 14.0839C19.6316 13.257 18.4889 12.6382 17.264 12.28C16.8934 12.1717 16.6819 11.7865 16.7912 11.4196C16.9005 11.0527 17.2892 10.8435 17.6603 10.9515C19.3132 11.4344 20.836 12.3279 22.0688 13.5351C22.0833 13.5473 22.0975 13.5598 22.1109 13.573C22.1229 13.5849 22.1336 13.5974 22.1445 13.6098C24.1065 15.5704 25.1865 18.1635 25.1865 20.9182C25.1865 23.6725 24.1065 26.2654 22.145 28.2257C22.1341 28.2384 22.1232 28.2511 22.1109 28.263C22.0989 28.2752 22.0863 28.2857 22.0737 28.2966C20.0934 30.2387 17.4745 31.308 14.6921 31.308C11.9099 31.308 9.29098 30.239 7.31097 28.2971C7.29812 28.286 7.28528 28.2752 7.27325 28.263C7.26123 28.2514 7.25057 28.2387 7.23964 28.2265C5.27767 26.266 4.19761 23.6728 4.19761 20.9182C4.19761 18.1638 5.27767 15.5709 7.23909 13.6106Z" fill="#00B2FF"/>
<path fill="currentcolor" d="M14.692 11.9136C14.3058 11.9136 13.9923 11.6033 13.9923 11.221C13.9923 10.8387 14.3058 10.5283 14.692 10.5283C15.0781 10.5283 15.3916 10.8387 15.3916 11.221C15.3916 11.6033 15.0781 11.9136 14.692 11.9136Z" fill="#00B2FF"/>
</svg>

<svg width="30" height="36" xmlns="http://www.w3.org/2000/svg"><path fill="#00B2FF" d="M3.23 11.817l-1.506-1.492a2.066 2.066 0 010-2.938c.819-.81 2.15-.81 2.968 0L6.3 8.98a14.774 14.774 0 015.593-2.341V4.572h-1.399c-.386 0-.7-.31-.7-.693V2.078A2.09 2.09 0 0111.895 0h5.597a2.09 2.09 0 012.099 2.078v1.8a.696.696 0 01-.7.694h-1.4v2.066a14.772 14.772 0 015.594 2.341l1.608-1.592c.818-.81 2.15-.81 2.968 0 .818.81.818 2.128 0 2.939l-1.506 1.49a14.44 14.44 0 013.23 9.102c0 8.02-6.59 14.546-14.692 14.546S0 28.939 0 20.918a14.44 14.44 0 013.23-9.101zm.473-3.45a.706.706 0 00-.99 0 .689.689 0 000 .979l1.446 1.431c.326-.331.668-.647 1.023-.946l-1.48-1.464zM18.19 2.078a.697.697 0 00-.7-.693h-5.596c-.386 0-.7.31-.7.693v1.108h6.996V2.078zm-4.897 2.494v1.866c.927-.086 1.87-.086 2.798 0V4.572h-2.798zM26.67 8.367a.706.706 0 00-.99 0L24.202 9.83c.355.3.697.615 1.023.946l1.445-1.431a.689.689 0 000-.98zM14.692 34.079c7.33 0 13.293-5.904 13.293-13.16a13.07 13.07 0 00-3.305-8.686 13.35 13.35 0 00-9.988-4.475 13.353 13.353 0 00-8.041 2.68c-.705.53-1.36 1.134-1.947 1.795a13.069 13.069 0 00-3.305 8.685c0 7.257 5.963 13.16 13.293 13.16z"/><path fill="#00B2FF" d="M14.692 22.996a2.09 2.09 0 01-2.1-2.078c0-.903.586-1.673 1.4-1.959v-4.967c0-.383.313-.693.7-.693.386 0 .7.31.7.693v4.967a2.083 2.083 0 011.399 1.96 2.09 2.09 0 01-2.1 2.077zm0-2.77c-.386 0-.7.31-.7.692 0 .382.314.693.7.693.386 0 .7-.31.7-.693a.697.697 0 00-.7-.692z"/><path fill="#00B2FF" d="M7.24 13.61a.553.553 0 01.074-.074 10.555 10.555 0 014.41-2.585.7.7 0 01.869.469.692.692 0 01-.473.86 9.146 9.146 0 00-3.341 1.804l.472.467c.273.27.273.71 0 .98a.701.701 0 01-.99 0l-.473-.469a8.874 8.874 0 00-2.164 5.164h.673c.386 0 .7.31.7.692a.696.696 0 01-.7.693h-.673a8.873 8.873 0 002.164 5.163l.473-.469a.705.705 0 01.99 0 .689.689 0 010 .98l-.474.468a9.059 9.059 0 005.215 2.143v-.666c0-.383.314-.693.7-.693.386 0 .7.31.7.693v.666a9.058 9.058 0 005.215-2.143l-.473-.468a.688.688 0 010-.98.705.705 0 01.99 0l.472.469a8.874 8.874 0 002.165-5.163h-.673c-.387 0-.7-.31-.7-.693 0-.382.313-.692.7-.692h.672a8.874 8.874 0 00-2.164-5.163l-.473.468a.701.701 0 01-.99 0 .688.688 0 010-.98l.473-.467a9.141 9.141 0 00-3.342-1.804.692.692 0 01-.473-.86.7.7 0 01.87-.469 10.551 10.551 0 014.408 2.584.723.723 0 01.042.038l.034.037a10.266 10.266 0 013.041 7.308c0 2.755-1.08 5.347-3.041 7.308l-.034.037-.037.034a10.477 10.477 0 01-7.382 3.011 10.476 10.476 0 01-7.381-3.01l-.038-.035-.033-.037a10.266 10.266 0 01-3.042-7.308c0-2.754 1.08-5.347 3.041-7.307z"/><path fill="#00B2FF" d="M14.692 11.914c-.386 0-.7-.31-.7-.693 0-.382.314-.693.7-.693.386 0 .7.31.7.693a.696.696 0 01-.7.693z"/></svg>
